X:97
T:Trim'd Waiscoat, The
M:6/8
L:1/8
B:Thompson's Compleat Collection of 200 Favourite Country Dances, vol. 3 (London, 1773)
Z:Transcribed and edited by Flynn Titford-Mock, 2007
Z:abc's:AK/Fiddler's Companion
K:Bb
dBB BBB | cde dcB | Ace dfb | fdB AGF | GAB cde | Ag=e fcd | cAF BG=E | (F3 F3) :|
|: FAc Ace | dfb fdB | FAc Ace | dfb fdB | gec fdB | ecB AGF | GAB cde | dfA B3 :|

